X: 56
T: Biljane Platne Bejase
B: incoming
M:3/4
L:1/4
Q: 1/4=120
K:G
V:1 
 G B c | d3 | e e f | g3 |\
 b b a | g f g | a g e | d3 |:
 e c d | e c d | e2 d/c/ | B3 |\
 d d c | B G A | B B A |[1 G2 z :|[2 G3 |]
V:2 
 G G A | B3 | c c d/c/ | B3 |\
 g g f | e d e | f e c | B3 |:
 c A B | c A B | c2 B/A/ | G3 |\
 f f e | d B c | d d c |[1 B2 z :|[2 B3 |] 
W: transcription from www.mandagsorkestret.dk
% abcbook-tune_id 63cb082f5919749057f46024
% abcbook-tune_composer_id 
% abcbook-boost 0
% abcbook-difficulty 0
% abcbook-tags balkan dances
% abcbook-tablature 
% abcbook-transpose 
% abcbook-tuning 
% abcbook-lastupdated 1674250287865
% abcbook-soundfonts 
% abcbook-repeats 1
%%score 1 2

